svg/fluentui-system-icons/ic_fluent_chat_bubbles_question_28_regular.svg

<svg width="28" height="28" viewBox="0 0 28 28" fill="none" xmlns="http://www.w3.org/2000/svg">
<path d="M3.5 12C3.5 7.85786 6.85786 4.5 11 4.5C15.1421 4.5 18.5 7.85786 18.5 12C18.5 16.1421 15.1421 19.5 11 19.5C9.69758 19.5 8.4748 19.1687 7.40908 18.5862C7.23987 18.4938 7.04155 18.47 6.8553 18.5199L3.60496 19.3909L4.47651 16.1382C4.52636 15.9522 4.50273 15.7541 4.41052 15.585C3.83013 14.5207 3.5 13.3 3.5 12ZM11 3C6.02944 3 2 7.02944 2 12C2 13.4484 2.3427 14.8187 2.95192 16.0325L2.044 19.4209C1.79495 20.3504 2.64547 21.2009 3.57493 20.9518L6.96065 20.0446C8.17608 20.656 9.54884 21 11 21C15.9706 21 20 16.9706 20 12C20 7.02944 15.9706 3 11 3ZM17 25.0001C14.3217 25.0001 11.9167 23.8302 10.2681 21.9736C10.5098 21.9912 10.7539 22.0001 11 22.0001C11.4671 22.0001 11.9267 21.9681 12.3768 21.9061C13.6507 22.9047 15.2558 23.5001 17 23.5001C18.3024 23.5001 19.5252 23.1687 20.5909 22.5863C20.7601 22.4939 20.9584 22.4701 21.1447 22.52L24.395 23.3909L23.5235 20.1383C23.4736 19.9522 23.4972 19.7542 23.5894 19.5851C24.1698 18.5208 24.5 17.3001 24.5 16.0001C24.5 13.193 22.9579 10.7462 20.6746 9.46046C20.494 8.77052 20.2416 8.10965 19.9257 7.48633C23.46 8.70063 26 12.0537 26 16.0001C26 17.4485 25.6573 18.8188 25.048 20.0326L25.956 23.421C26.205 24.3504 25.3545 25.201 24.425 24.9519L21.0393 24.0447C19.8239 24.6561 18.4511 25.0001 17 25.0001ZM12 16.5C12 17.0523 11.5523 17.5 11 17.5C10.4477 17.5 10 17.0523 10 16.5C10 15.9477 10.4477 15.5 11 15.5C11.5523 15.5 12 15.9477 12 16.5ZM9.49997 9.25728L9.50002 9.25564C9.5002 9.25094 9.5007 9.24014 9.50198 9.22414C9.50458 9.19186 9.51023 9.14012 9.52231 9.07572C9.54704 8.94383 9.59527 8.77709 9.68493 8.6177C9.83663 8.34802 10.1526 8 11 8C11.8474 8 12.1634 8.34802 12.3151 8.6177C12.4047 8.77709 12.453 8.94383 12.4777 9.07572C12.4887 9.1344 12.4959 9.19344 12.5 9.25296L12.5 9.25564C12.4977 9.77761 12.1948 10.1144 11.5862 10.7904L11.5676 10.8111C10.9886 11.4543 10.25 12.3253 10.25 13.75C10.25 14.1642 10.5858 14.5 11 14.5C11.4142 14.5 11.75 14.1642 11.75 13.75C11.75 12.9247 12.1364 12.4212 12.6824 11.8146C12.7221 11.7706 12.7637 11.7251 12.8067 11.6781C13.308 11.1302 14 10.3738 14 9.25L14 9.24818L13.9989 9.19943C13.998 9.17484 13.9963 9.14267 13.9932 9.10399C13.987 9.02689 13.9751 8.92238 13.952 8.79928C13.9064 8.55617 13.814 8.22291 13.6224 7.8823C13.2116 7.15198 12.4026 6.5 11 6.5C9.59741 6.5 8.78837 7.15198 8.37757 7.8823C8.18598 8.22291 8.09359 8.55617 8.048 8.79928C8.02492 8.92238 8.013 9.02689 8.0068 9.10399C8.0037 9.14267 8.002 9.17484 8.00108 9.19943C8.00061 9.21174 8.00035 9.2222 8.00019 9.23066L8.00004 9.24185L8.00001 9.24631L8 9.24825C8 9.25088 8 9.25 8 9.25C8 9.66421 8.33579 10 8.75 10C9.16178 10 9.49605 9.66814 9.49997 9.25728Z" fill="#212121"/>
</svg>

<svg xmlns="http://www.w3.org/2000/svg" width="28" height="28"><path d="M3.5 12a7.5 7.5 0 1 1 3.91 6.586.75.75 0 0 0-.555-.066l-3.25.87.872-3.252a.75.75 0 0 0-.066-.553A7.463 7.463 0 0 1 3.5 12ZM11 3a9 9 0 0 0-8.048 13.032l-.908 3.389a1.25 1.25 0 0 0 1.53 1.53l3.387-.906A9 9 0 1 0 11 3Zm6 22a8.978 8.978 0 0 1-6.732-3.026 10.077 10.077 0 0 0 2.109-.068A7.468 7.468 0 0 0 17 23.5a7.463 7.463 0 0 0 3.59-.914.75.75 0 0 1 .555-.066l3.25.87-.872-3.252a.75.75 0 0 1 .066-.553A7.467 7.467 0 0 0 24.5 16a7.498 7.498 0 0 0-3.825-6.54 9.926 9.926 0 0 0-.75-1.974 9.004 9.004 0 0 1 5.123 12.547l.908 3.388a1.25 1.25 0 0 1-1.531 1.53l-3.386-.906A8.965 8.965 0 0 1 17 25Zm-5-8.5a1 1 0 1 1-2 0 1 1 0 0 1 2 0ZM9.5 9.257v-.001l.002-.032a1.516 1.516 0 0 1 .183-.606C9.837 8.348 10.153 8 11 8s1.163.348 1.315.618a1.517 1.517 0 0 1 .185.635v.003c-.002.522-.305.858-.914 1.534l-.018.021c-.58.643-1.318 1.514-1.318 2.939a.75.75 0 0 0 1.5 0c0-.825.386-1.329.932-1.935l.125-.137C13.308 11.13 14 10.374 14 9.25v-.002l-.001-.049a2.94 2.94 0 0 0-.047-.4 3.015 3.015 0 0 0-.33-.917C13.212 7.152 12.402 6.5 11 6.5c-1.403 0-2.212.652-2.622 1.382A3.015 3.015 0 0 0 8 9.231v.019a.75.75 0 0 0 1.5.007Z"/></svg>
